Papirus/16x16/apps/abiword.svg

<?xml version="1.0" encoding="UTF-8" standalone="no"?>
<svg xmlns="http://www.w3.org/2000/svg" height="16" viewBox="0 0 16 16" width="16" version="1.1">
 <path d="m8 0a8 8 0 0 0 -8 8 8 8 0 0 0 8 8 8 8 0 0 0 8 -8 8 8 0 0 0 -8 -8z" style="fill:#248afd;"/>
 <path style="fill:#cccccc;stroke-width:0.05869598px;" d="M 11.441507,10.524133 C 8.8510846,11.742758 6.1849676,12.886379 3.35459,13.49564 2.4422528,13.491413 2.8923961,12.361147 3.0397544,11.84896 3.7474609,9.6732646 4.844812,7.6363579 5.8883861,5.5938444 6.3015731,4.9485121 6.5946447,4.0591259 7.4277388,3.8108302 8.2369386,3.7252682 8.7686185,4.4699503 9.1877659,5.0132328 10.901663,7.5110618 12.520195,10.074253 13.939752,12.734126 14.299283,13.4274 14.65151,14.124072 15,14.822397 13.963755,10.797482 12.568989,6.8049326 10.320497,3.2322895 9.8164519,2.5267329 9.3574029,1.7611243 8.6773394,1.1935288 8.0145923,0.70920426 7.1994156,1.2306382 6.7095479,1.6994857 5.1705637,3.1682247 4.2331463,5.0847651 3.3145997,6.9354046 2.2432994,9.1255536 1.5403925,11.460081 1.0244209,13.818215 c -0.18089781,0.794182 0.677555,1.370645 1.4404417,1.124216 2.1130756,-0.418211 4.0988421,-1.295448 5.9677164,-2.30215 1.0770329,-0.60182 2.112865,-1.28521 3.008928,-2.116148 z"/>
</svg>

<?xml version="1.0" encoding="UTF-8" standalone="no"?>
<svg width="16" xmlns="http://www.w3.org/2000/svg" viewBox="0 0 16 16" version="1.1" height="16">
 <circle style="fill:#248afd" cx="8" r="8" cy="8"/>
 <path style="fill:#cccccc" d="m11.442 10.524c-2.5909 1.219-5.257 2.362-8.0874 2.972-0.9123-0.005-0.4622-1.135-0.3148-1.647 0.7077-2.1757 1.805-4.2126 2.8486-6.2552 0.4132-0.6453 0.7062-1.5347 1.5393-1.783 0.8092-0.0855 1.3409 0.6592 1.7601 1.2024 1.7142 2.4979 3.3322 5.0608 4.7522 7.7208 0.359 0.693 0.712 1.39 1.06 2.088-1.036-4.025-2.431-8.0171-4.68-11.59-0.5035-0.7053-0.9626-1.4709-1.6427-2.0385-0.6627-0.4843-1.4779 0.0371-1.9678 0.506-1.5389 1.4687-2.4764 3.3853-3.3949 5.2359-1.0713 2.1902-1.7742 4.5246-2.2902 6.8826-0.1809 0.79418 0.67756 1.3706 1.4404 1.1242 2.1131-0.41821 4.0988-1.2954 5.9677-2.3022 1.077-0.60182 2.1129-1.2852 3.0089-2.1161z"/>
</svg>
